X: 36963
T: Shropshire Rounds, The
R: three-two
M: 3/2
K: Dmajor
|:D4 A4 G4|F4 E4 F4|D4 A4 G4|1 F4 D4- D4:|2 F4 D4 A,4||
|:C4 A,4 B,4|C2- C2 D4-|D4 E4 G4|1 F4 D4 A,4:|2 F4 D4 A,4||
|:D4 C4 A,4|G4 ^G4 A4-|A4 ^G4 =G4|1 F4 D4 A,4:|2 F4 D4- D4||

